X: 87
T: Pollonesse #87(1)
M: 3/4
L: 1/16
K: D
Q:120
D4 F2D2 F2D2| F4 A2F2 A2F2| A2A2 d4 f4|e2e2 d4D4:|
|:f2f2 f2ed e2e2|f2f2 f2ed e2e2|f2ef g4 f4|e2e2 d4D4:|
N: Jämför nr. 4

